X:1
T:In notte placida
T:Francoise Couperin (Parigi, 10 novembre 1668 – Parigi, 11 settembre 1733)
T:Pubblico dominio
T:Pubblico dominio
T:Pubblico dominio
Z:Pubblico dominio
%%score [ 1 2 ( 3 4 ) 5 ]
L:1/8
Q:1/4=76
M:6/8
K:F
V:1 treble nm="Soprano"
V:2 treble nm="Alto"
V:3 bass nm="Tenor"
V:4 bass 
V:5 bass nm="Bass"
V:1
"^Andante legato" (A3 GF G | F2 F !breath!F2) (G | A3 GF G |"^cresc." !breath!F2) (c c B c | %4
w: In not- * te|pla- ci- da, per|mu- to * sen-|tier, dai cam- pi de'|
w: Se l'au- * ra~è|ge- li- da, se|fo- sco~è * il|ciel, oh vie- ni~al mio|
 d2 B B A B | !breath!c2) (A A G A | B2 A G2 F | G3- G2) z | (A3 GF G | F2 F !breath!F2) (G | %10
w: cie- li sce- se l'a-|mor, al- l'al- me fe-|de- li~il Re den-|tor. _|Nel- l'au- * ra~è~il|pal- pi- to, d'un|
w: co- re, vie- ni~a po-|sar, ti vo' col mio~a-|mo- re ri- scal-|dar. _|Se~il fie- * no~è|ri- gi- do, se~il|
 A3 GF G |"^cresc." !breath!F2) |: (c c B c | d2 B B A B | !breath!c2) (A A G A | B2 A G F G |1 %16
w: gran- de * mi-|ster;|del nuo- vo~I- sra-|el- lo na- to~è~il Si-|gnor, il fio- re più|bel- lo dei no- stri|
w: ven- to è cru-|del;|un cuo- re che|t'a- ma vo- glio~a Te|dar, un sen che Te|bra- ma, Ge- sù, cul-|
 F2) :|2 F4- F !fermata!z!fine! || c6- | c6- | c6- | c2 c c2 z | F G _A G A B | %23
w: fior.|fior. *|Glo-|||* ri- a!|Can- ta- te, po- po- li,|
w: lar.-||.|||||
 _A G F E D !breath!C | F G _A G A B | _A G F c2 !fermata!z!D.C.! |] %26
w: glo- ria~al- l'Al- tis- si- mo!|L'a- ni- mo~a- pri- te~a spe-|ran- za,~ad a- mor.|
w: |||
V:2
 z6 | z6 | z6 | !breath!F2 (A A G A | B2 G G F G | !breath!A2) (F F E F | G2 F E2 D | E3- E2) z | %8
w: |||tier, dai cam- pi de'|cie- li sce- se l'a-|mor, al- l'al- me fe-|de- li~il Re den-|tor. _|
w: |||ciel, oh vie- ni~al mio|co- re, vie- ni~a po-|sar, ti vo' col mio~a-|mo- re ri- scal-|dar. _|
 z6 | z6 | z6 | !breath!F2 |: (A A G A | B2 G G F G | !breath!A2) (F F E F | G2 F E F E |1 F2) :|2 %17
w: |||ster;|del nuo- vo~I- sra-|el- lo na- to~è~il Si-|gnor, il fio- re più|bel- lo dei no- stri|fior.|
w: |||del;|un cuo- re che|t'a- ma vo- glio~a Te|dar, un sen che Te|bra- ma, Ge- sù, cul-|lar.|
 F4- F !fermata!z || (F3 (E3) | (F3) (G3) | (_A2) F E3 | F2) F E2 z | C6- | C6- | C6- | %25
w: fior. *|Glo- *|||* ri- a!|Glo-|||
w: |. *||||.|||
 C2 C C2 !fermata!z |] %26
w: * ri- a!|
w: |
V:3
 (C3 B,A, B, | A,2 A, !breath!A,2) (B, | C3 B,A, B, | !breath!A,2) (C F F F | F2 B, E E E | %5
w: In not- * te|pla- ci- da, per|mu- to * sen-|tier, dai cam- pi de'|cie- li sce- se l'a-|
w: Se l'au- * ra~è|ge- li- da, se|fo- sco~è * il|ciel, oh vie- ni~al mio|co- re, vie- ni~a po-|
 !breath!E2) (A, D D D | D2 G, C2 C | C3- C2) z | (C3 B,A, B, | A,2 A, !breath!A,2) (B, | %10
w: mor, al- l'al- me fe-|de- li~il Re den-|tor. _|Nel- l'au- * ra~è~il|pal- pi- to, d'un|
w: sar, ti vo' col mio~a-|mo- re ri- scal-|dar. _|Se~il fie- * no~è|ri- gi- do, se~il|
 C3 B,A, B, | !breath!A,2) |: (C F F F | F2 B, E E E | !breath!E2) (A, D D D | D2 G, B, A, B, |1 %16
w: gran- de * mi-|ster;|del nuo- vo~I- sra-|el- lo na- to~è~il Si-|gnor, il fio- re più|bel- lo dei no- stri|
w: ven- to è cru-|del;|un cuo- re che|t'a- ma vo- glio~a Te|dar, un sen che Te|bra- ma, Ge- sù, cul-|
 A,2) :|2 A,4- A, !fermata!z || C6- | C6- | C6- | C2 C C2 z | ((F,3 (E,3)) | (F,3) (G,3) | %24
w: fior.|fior. *|Glo-|||* ri- a!|Glo- *||
w: lar.||.||||. *||
 (_A,2) F, E,3 | F,2) F, E,2 !fermata!z |] %26
w: |* ri- a!|
w: ||
V:4
 x6 | x6 | x6 | x6 | B,2 x4 | A,2 x4 | G,2 x4 | x6 | x6 | x6 | x6 | x2 |: x4 | B,2 x4 | A,2 x4 | %15
 G,2 x4 |1 x2 :|2 x6 || x6 | x6 | x6 | x6 | x6 | x6 | x6 | x6 |] %26
V:5
 (F,3 F,2 F, | F,2 F, !breath!F,2) (F, | F,3 F,2 F, | !breath!F,2) (F, F, F, F, | B,2 B, E, E, E, | %5
w: In not- te|pla- ci- da, per|mu- to sen-|tier, dai cam- pi de'|cie- li sce- se l'a-|
w: Se l'au- ra~è|ge- li- da, se|fo- sco~è il|ciel, oh vie- ni~al mio|co- re, vie- ni~a po-|
w: |||||
 !breath!A,2) (D, D, D, D, | G,2 G, C,2 C, | C,3- C,2) z | (E,3 F,2 F, | F,2 F, !breath!F,2) (F, | %10
w: mor, al- l'al me fe-|de- li~il Re den-|tor. _|Nel- l'au- ra~è~il|pal- pi- to, d'un|
w: sar, ti vo' col mio~a|mo- re ri- scal-|dar. _|Se~il fie- no~è|ri- gi- do, se~il|
w: |||||
 F,3 F,2 F, | !breath!F,2) |: (F, F, F, F, | B,2 B, E, E, E, | !breath!A,2) (A, D, D, D, | %15
w: gran- de mi-|ster;|del nuo- vo~I- sra-|el- lo na- to~è~il Si-|gnor, il fio- re più|
w: ven- to~è cru-|del;|un cuo- re che|t'a- ma vo- glio~a Te|dar, un sen che Te|
w: |||||
 G,2 G, C, C, C, |1 F,2) :|2 F,4- F, !fermata!z ||!f! F, G, _A, G, A, B, | %19
w: bel- lo dei no- stri|fior.|fior. *|Can ta- te, po- po- li,|
w: bra- ma, Ge- sù, cul-|lar.|||
w: ||||
 _A, G, F, E, D, !breath!C, | F, G, _A, G, A, B, | _A, G, F, C,2 z | C,6- | C,6- | C,6- | %25
w: glo- ria~al~- l'al- tis- si- mo!|L'a- ni- mo~a- pri- te~a spe-|ran- za,~ad a- mor.|Glo-|||
w: ||||||
w: |||.|||
 C,2 C, C,2 !fermata!z |] %26
w: * ri- a!|
w: |
w: |

